icons/file_type_markojs.svg

<svg xmlns="http://www.w3.org/2000/svg" viewBox="0 0 32 32"><path d="M16.014 8.375h3.948c-1.455 2.38-3.062 5-4.668 7.627h-3.951c1.607-2.622 3.213-5.247 4.671-7.627ZM6.67 8.375h3.951q-1.172 1.91-2.338 3.816T5.948 16l2.332 3.817q1.164 1.906 2.338 3.81h-3.95q-1.172-1.9-2.338-3.81T2 16l2.332-3.81Q5.5 10.28 6.67 8.375Z" style="fill:#888;fill-rule:evenodd"/><path d="M6.669 8.372C8.278 11 9.888 13.622 11.344 16h3.951l-4.674-7.625ZM19.962 8.375h-3.948l2.335 3.816q1.167 1.906 2.338 3.809-1.172 1.911-2.338 3.817l-2.335 3.81h3.951q1.168-1.9 2.335-3.81T24.638 16c-.784-1.269-1.559-2.538-2.338-3.81s-1.56-2.54-2.338-3.815Z" style="fill:#888;fill-rule:evenodd"/><path d="M18.326 11.058h-3.954l-1.512 2.471Q12.1 14.765 11.343 16h3.951l1.52-2.474q.76-1.236 1.512-2.468Z" style="fill:#888;fill-rule:evenodd"/><path d="M12.987 13.319h3.951l1.512-2.471 1.512-2.473h-3.948q-.76 1.238-1.515 2.473Z" style="fill:#888;fill-rule:evenodd"/><path d="M22.994 13.319h-3.95l-1.518-2.471-1.512-2.473h3.948q.756 1.238 1.515 2.473c.505.822 1.011 1.652 1.517 2.471Z" style="fill:#888;fill-rule:evenodd"/><path d="M25.321 8.375H21.37l2.332 3.816q1.164 1.903 2.342 3.809-1.172 1.911-2.338 3.817t-2.335 3.81h3.951q1.168-1.9 2.335-3.81T29.994 16l-2.338-3.81q-1.168-1.902-2.335-3.815Z" style="fill:#888;fill-rule:evenodd"/><path d="M28.351 13.32H24.4q-.764-1.233-1.518-2.471T21.37 8.375h3.951l1.512 2.474q.756 1.236 1.518 2.471ZM23.017 20.945h3.951q.756-1.233 1.512-2.47T30 16h-3.956q-.76 1.238-1.515 2.473ZM17.66 20.945h3.951l1.512-2.471 1.515-2.473h-3.951q-.76 1.238-1.515 2.473ZM8.975 11.063H5.024c-.507.824-1.011 1.65-1.515 2.473S2.5 15.181 2 16h3.948c.5-.821 1.008-1.646 1.512-2.468s1.008-1.646 1.515-2.469Z" style="fill:#888;fill-rule:evenodd"/><path d="M3.644 13.314h3.95c.507-.824 1.011-1.65 1.515-2.473s1.008-1.641 1.51-2.466H6.67c-.5.821-1.008 1.646-1.512 2.468s-1.007 1.647-1.514 2.471ZM3.641 18.691h3.951c.5.825 1.008 1.649 1.512 2.471s1.008 1.647 1.515 2.468H6.668q-.761-1.23-1.518-2.468c-.505-.822-1.005-1.648-1.509-2.471Z" style="fill:#888;fill-rule:evenodd"/><path d="M13.648 13.314H9.7c-.507-.824-1.011-1.65-1.515-2.473S7.174 9.2 6.673 8.375h3.948c.5.821 1.008 1.646 1.512 2.468s1.008 1.647 1.515 2.471Z" style="fill:#888;fill-rule:evenodd"/></svg>

<svg xmlns="http://www.w3.org/2000/svg" viewBox="0 0 32 32"><title>file_type_markojs</title><path d="M16.014,8.375h3.948c-1.455,2.38-3.062,5-4.668,7.627H11.343C12.95,13.38,14.556,10.755,16.014,8.375Z" style="fill:#888;fill-rule:evenodd"/><path d="M6.67,8.375h3.951q-1.172,1.91-2.338,3.816T5.948,16q1.168,1.911,2.332,3.817t2.338,3.81H6.668q-1.172-1.9-2.338-3.81T2,16q1.164-1.9,2.332-3.81T6.67,8.375Z" style="fill:#888;fill-rule:evenodd"/><path d="M6.669,8.372l0,0C8.278,11,9.888,13.622,11.344,16h3.951L10.621,8.375l0,0Z" style="fill:#888;fill-rule:evenodd"/><path d="M19.962,8.375H16.014q1.168,1.91,2.335,3.816T20.687,16q-1.172,1.911-2.338,3.817l-2.335,3.81h3.951q1.168-1.9,2.335-3.81T24.638,16c-.784-1.269-1.559-2.538-2.338-3.81S20.74,9.65,19.962,8.375Z" style="fill:#888;fill-rule:evenodd"/><path d="M18.326,11.058H14.372L12.86,13.529Q12.1,14.765,11.343,16h3.951q.76-1.238,1.52-2.474T18.326,11.058Z" style="fill:#888;fill-rule:evenodd"/><path d="M12.987,13.319h3.951l1.512-2.471,1.512-2.473H16.014q-.76,1.238-1.515,2.473Z" style="fill:#888;fill-rule:evenodd"/><path d="M22.994,13.319H19.044q-.76-1.236-1.518-2.471L16.014,8.375h3.948q.756,1.238,1.515,2.473C21.982,11.67,22.488,12.5,22.994,13.319Z" style="fill:#888;fill-rule:evenodd"/><path d="M25.321,8.375H21.37q1.168,1.913,2.332,3.816T26.044,16q-1.172,1.911-2.338,3.817t-2.335,3.81h3.951q1.168-1.9,2.335-3.81T29.994,16l-2.338-3.81Q26.488,10.288,25.321,8.375Z" style="fill:#888;fill-rule:evenodd"/><path d="M28.351,13.32H24.4q-.764-1.233-1.518-2.471T21.37,8.375h3.951q.756,1.238,1.512,2.474T28.351,13.32Z" style="fill:#888;fill-rule:evenodd"/><path d="M23.017,20.945h3.951q.756-1.233,1.512-2.47T30,16H26.044q-.76,1.238-1.515,2.473Z" style="fill:#888;fill-rule:evenodd"/><path d="M17.66,20.945h3.951l1.512-2.471q.756-1.235,1.515-2.473H20.687q-.76,1.238-1.515,2.473Z" style="fill:#888;fill-rule:evenodd"/><path d="M8.975,11.063H5.024c-.507.824-1.011,1.65-1.515,2.473S2.5,15.181,2,16H5.948c.5-.821,1.008-1.646,1.512-2.468S8.468,11.886,8.975,11.063Z" style="fill:#888;fill-rule:evenodd"/><path d="M3.644,13.314H7.594c.507-.824,1.011-1.65,1.515-2.473S10.117,9.2,10.619,8.375H6.67c-.5.821-1.008,1.646-1.512,2.468S4.151,12.49,3.644,13.314Z" style="fill:#888;fill-rule:evenodd"/><path d="M3.641,18.691c1.316,0,2.629,0,3.951,0,.5.825,1.008,1.649,1.512,2.471s1.008,1.647,1.515,2.468H6.668Q5.907,22.4,5.15,21.162C4.645,20.34,4.145,19.514,3.641,18.691Z" style="fill:#888;fill-rule:evenodd"/><path d="M13.648,13.314H9.7c-.507-.824-1.011-1.65-1.515-2.473S7.174,9.2,6.673,8.375h3.948c.5.821,1.008,1.646,1.512,2.468S13.141,12.49,13.648,13.314Z" style="fill:#888;fill-rule:evenodd"/></svg>
